icons/box-chart-series-32.svg

<svg xmlns="http://www.w3.org/2000/svg" viewBox="0 0 32 32"><path d="M19 22V9h7v13z" opacity=".25"/><path d="M22 26h-1v1h3v-1h-1v-3h4V8h-4V5h1V4h-3v1h1v3h-4v15h4zM19 9h7v3h-7zm0 13v-9h7v9h-7zm11 7v1H2V2h1v27zm-20-4H9v1h3v-1h-1v-3h4V11h-4V8h1V7H9v1h1v3H6v11h4zM7 12h7v5H7zm0 9v-3h7v3z"/><path fill="none" d="M0 0h32v32H0z"/></svg>

<svg id="icons" xmlns="http://www.w3.org/2000/svg" viewBox="0 0 32 32"><defs><style>.cls-1{opacity:0.25;}.cls-2{fill:none;}</style></defs><path class="cls-1" d="M19,22V9h7V22Z"/><path d="M22.00006,26H21v1h3V26H23V23h4V8H23V5h1V4H21V5h1.00006V8H18V23h4.00006ZM19,9h7v3H19Zm0,13V13h7v9H19Zm11,7v1H2V2H3V29ZM10,25H9v1h3V25h-.99988V21.99994H15v-11H11.00012v-3H12V7H9v.99994h1v3H6v11h4ZM7,12h7v5H7Zm0,9V18h7v3Z"/><rect class="cls-2" width="32" height="32"/></svg>
